!!!COM: Ernest Chausson
!!!CNT: Francais
!!!TXO: Francais
!!!OTL: Se/re/nade Italienne
!!!OPS: Op. 2
!!!ONM: No. 5
!!!LYR: Paul Bourget
!!!ENC: Jacob Pegg
!!!YOR: 20 Songs for Voice and Piano, International Music Company, New York City, January, 1952
!!!ODT: 1880/
!!NB: Vocal melody and text only encoded.
**kern	**silbe
*clef G2	*
*k[f#c#g#]	*
*M3/2	*
=3	=3
{4cc#	{par-
8dd	-tons
8dd	en
4cc#	bar-
4b	-que
4cc#	sur
4a	la
=4	=4
[2b	mer
4b]	|
4r	.
4r	.
8fn	pour
8fn	pas-
=5	=5
4e	-ser
4b	la
4a	nuit
8b	aux
8b	e/-
2dd	-toi-
=6	=6
4cc#}	-les.}
4r	.
2r	.
2r	.
=7	=7
{[1.cc#;	{Vois,
=8	=8
4cc#]	|
4ddn	il
4cc#	souf-
4b	-fle
4cc#	juste
8a	as-
8a	-sez
=9	=9
1.fn	d'air
=10	=10
4cc#	Pour
4dd	en-
4cc#	-fler
4b	la
4a	toi-
8b	-le
8cc#	des
=11	=11
2a	voi-
4f#}	-les}
4r	.
2r	.
=12	=12
1.r	.
=13	=13
8r	.
{8a	{Le
8a	vieux
8a	pe^-
2ccn	-cheur
6ccn	i-
6b	-tal-
6a	-li-
=14	=14
2gn	-en
4r	.
4gn	Et
4gn	ses
4gn	deux
=15	=15
2.b-	fils
4b-	qui
4b-	nous
4b-	con-
=16	=16
2bn	-dui-
4f#}	-sent,}
4r	.
4r	.
{4f#	{E-
=17	=17
[2a	-cou-
6a]	|
6fn	-tent
6e	mais
6d	n'en-
6fn	-ten-
6a	-dent
=18	=18
[2a-	rien
4a-]}	|}
4r	.
4r	.
{4a-	{Aux
=19	=19
[2an	mots
6an]	|
6fn	que
6e	nos
6d	bou-
6fn	-ches
6a	se
=20	=20
2a-	di-
[4d-	-sent
8d-]}	|}
8r	.
2r	.
=21	=21
1.r	.
=22	=22
2r	.
{4.b-	{Sur
8b-	la
[2b-	mer
=23	=23
2b-]	|
4a-	calme
4g-	et
[2b-	som-
=24	=24
2b-]	|
8b-}	-bre}
8r	.
4r	.
2r	.
=25	=25
{[1.dd-	{Vois
=26	=26
1.dd-]	|
=27	=27
4cc#	Nous
4ddn	pou-
4cc#	-vons
8b	e/-
8b	-chan-
4cc#	-ger
4a	nos
=28	=28
2b	a^-
4b	-mes,
4r	.
2r	.
=29	=29
4cc#	Et
4dd	nul
4cc#	ne
8b	com-
8b	-prend-
4cc#	-ra
4a	nos
=30	=30
[2fn	voix
4fn]}	|}
4r	.
2r	.
=31	=31
{4.e	{Que
8e	la
[2fn	nuit
4fn]	|
4d	le
=32	=32
4B-	ciel
8d-	et
8fn	les
1en	la-
=33	=33
[2e	-mes
8e]}	|}
8r	.
4r	.
2r	.
*-	*-
